X: 1
T: Molly Halfpenny
B: A COLECTION of the most Celebrated Irish Tunes5a
M: C|
L: 1/8
K: Am
B2 |\
c2A2 A2GA | (Bc)(AG) G2(cd) | e2(de) (dc)(AG) | A6 (de) |\
f2(gf) e2(fe) | (dcde) a3a | gede (dc)(AG) | A6 :|
|: e2 |\
gega g3a | gede ga ge/d/ | agab ageg | a6 (ag) |\
f2(gf) e2(fe) | (dc) (d/e/g) a3a | (gede) (dc)(AG) | A6 :|
